X:1
T:4.
%%score { ( 1 3 ) | 2 }
L:1/8
Q:1/4=44
M:3/4
K:Gb
V:1 treble nm="Piano"
V:3 treble 
V:2 bass 
V:1
"^Lento"!p! (B2 AB (3dc3/2B/ | A2 GA (3cB3/2E/ | .[G,B,EG]2 .[G,B,EG]2 .[G,B,EG]2 | %3
 A2 GA (3cB3/2F/ | G2 FG (3BA3/2E/ | .[F,B,=DF]2 .[F,B,DF]2 .[F,B,DF]2 | G2"_cresc." FG (3AB3/2c/ | %7
!mf! d2 e_f"_dim." (3ed3/2c/ | [C_Fc]2 [CEc]2 [CEc]2 |!p! [B,B]2!pp! AB (3dc3/2G/ | %10
 A2 GA (3cB3/2E/ | .[G,B,EG]2 .[G,B,EG]2 .[G,B,EG]2) |] %12
V:2
 z6 | z6 | (.[E,,B,,E,]2 .[E,,B,,E,]2 .[E,,B,,E,]2) | [D,,D,]4 [G,,D,]2 | [C,,C,]4 [F,,C,]2 | %5
 (.[B,,,B,,]2 .[B,,,B,,]2 .[B,,,B,,]2) | [A,,,A,,]4 [D,,D,][C,,C,] | %7
 [B,,,B,,]2 [A,,,A,,]2 [=G,,,=G,,]>[A,,,A,,] | (.[A,,_F,]2 .[=A,,G,]2 .[A,,G,]2) | %9
 .[B,,G,]2 z2 z2 | z6 | (.[E,,B,,E,]2 .[E,,B,,E,]2 .[E,,B,,E,]2) |] %12
V:3
 x6 | x6 | x6 | [A,DF]4 [B,F]2 | [B,E]4 [A,E]2 | x6 | [G,CE]4 [DF]2 | [_FA]2 [Fc]2 [FB]>[FA] | x6 | %9
 .E x5 | x6 | x6 |] %12

